X: 779
T: The Humors of Cappa.
C:McNamara.
B:O'Neill's Music of Ireland
N:O'Neill's - 779
Z:Transcribed by Stephen Foy (shf@access.digex.net)
Z:abc 1.6
M:6/8
R:Jig
K:D
A|dFF AFA|dFF AFA|BEE BEE|BdB AFA|\
dFF AFA|dFF AFA|ABd efg|fdd d2:|
||A|dfd cec|BdB AFA|BEE BEE|BdB AFA|\
dfd cec|BdB AFA|ABd efg|fdd d2:|


